X:1064
T:Mak A Kishie Needle, Dye
R:reel
O:Shetland
Z:id:hn-reel-1064
M:C|
L:1/8
K:G
BdBG ABc2 | BdBG Bdgd | BdBG ABce |1 dcBA G2GA :|2 dcBA G2Bc ||
|: dBgB eAcA | dBgB dgBg | dBgB eAcA |1 dcBA G2Bc :|2 dcBA G2GA ||

